priv/static/svgs/icons_new/files-delete.svg

<svg width="32" height="32" viewBox="0 0 32 32" fill="none" xmlns="http://www.w3.org/2000/svg">
<path d="M8.69235 11.6154L8.33879 11.2618L8.19235 11.4083L8.19235 11.6154L8.69235 11.6154ZM13.8077 6.5V6H13.6006L13.4542 6.14645L13.8077 6.5ZM23.3077 9.42308H22.8077H23.3077ZM23.3077 18.9231V19.4231H23.8077V18.9231H23.3077ZM8.69232 18.9231L8.19232 18.9231L8.19232 19.4231H8.69232L8.69232 18.9231ZM14.5385 12.3462V12.8462H15.0385V12.3462H14.5385ZM6.5 18.4231C6.22386 18.4231 6 18.647 6 18.9231C6 19.1992 6.22386 19.4231 6.5 19.4231V18.4231ZM25.5 19.4231C25.7761 19.4231 26 19.1992 26 18.9231C26 18.647 25.7761 18.4231 25.5 18.4231V19.4231ZM9.65387 23.3077C9.65387 23.5839 9.87773 23.8077 10.1539 23.8077C10.43 23.8077 10.6539 23.5839 10.6539 23.3077H9.65387ZM10.6539 21.8462C10.6539 21.5701 10.43 21.3462 10.1539 21.3462C9.87773 21.3462 9.65387 21.5701 9.65387 21.8462H10.6539ZM13.3077 25.5C13.3077 25.7761 13.5315 26 13.8077 26C14.0838 26 14.3077 25.7761 14.3077 25.5H13.3077ZM14.3077 21.8462C14.3077 21.57 14.0838 21.3462 13.8077 21.3462C13.5315 21.3462 13.3077 21.57 13.3077 21.8462H14.3077ZM16.9615 23.3077C16.9615 23.5839 17.1854 23.8077 17.4615 23.8077C17.7377 23.8077 17.9615 23.5839 17.9615 23.3077H16.9615ZM17.9615 21.8462C17.9615 21.5701 17.7377 21.3462 17.4615 21.3462C17.1854 21.3462 16.9615 21.5701 16.9615 21.8462H17.9615ZM20.6154 25.5C20.6154 25.7761 20.8392 26 21.1154 26C21.3915 26 21.6154 25.7761 21.6154 25.5H20.6154ZM21.6154 21.8462C21.6154 21.57 21.3915 21.3462 21.1154 21.3462C20.8392 21.3462 20.6154 21.57 20.6154 21.8462H21.6154ZM9.0459 11.9689L14.1613 6.85355L13.4542 6.14645L8.33879 11.2618L9.0459 11.9689ZM22.8077 9.42308L22.8077 18.9231H23.8077L23.8077 9.42308H22.8077ZM20.3847 7C21.7229 7 22.8077 8.08485 22.8077 9.42308H23.8077C23.8077 7.53256 22.2752 6 20.3847 6V7ZM13.8077 7H14.5385V6H13.8077V7ZM14.5385 7H20.3847V6H14.5385V7ZM8.19235 11.6154L8.19234 12.3462L9.19234 12.3462L9.19235 11.6154L8.19235 11.6154ZM8.19234 12.3462L8.19232 18.9231L9.19232 18.9231L9.19234 12.3462L8.19234 12.3462ZM14.0385 6.5V12.3462H15.0385V6.5H14.0385ZM14.5385 11.8462H8.69234V12.8462H14.5385V11.8462ZM8.69232 19.4231L23.3077 19.4231V18.4231L8.69232 18.4231L8.69232 19.4231ZM6.5 19.4231H25.5V18.4231H6.5V19.4231ZM10.6539 23.3077L10.6539 21.8462H9.65387L9.65387 23.3077H10.6539ZM14.3077 25.5V21.8462H13.3077V25.5H14.3077ZM17.9615 23.3077V21.8462H16.9615V23.3077H17.9615ZM21.6154 25.5V21.8462H20.6154V25.5H21.6154Z" fill="black"/>
</svg>

<svg width="32" height="32" viewBox="0 0 32 32" fill="none" xmlns="http://www.w3.org/2000/svg">
  <symbol id="item" viewBox="0 0 32 32"  fill="none">
    <path d="m8.692 11.615-.353-.353-.147.146v.207h.5ZM13.808 6.5V6H13.6l-.147.146.354.354Zm9.5 2.923h-.5.5Zm0 9.5v.5h.5v-.5h-.5Zm-14.616 0h-.5v.5h.5v-.5Zm5.847-6.577v.5h.5v-.5h-.5ZM6.5 18.423a.5.5 0 0 0 0 1v-1Zm19 1a.5.5 0 0 0 0-1v1ZM9.654 23.308a.5.5 0 1 0 1 0h-1Zm1-1.462a.5.5 0 0 0-1 0h1Zm2.654 3.654a.5.5 0 1 0 1 0h-1Zm1-3.654a.5.5 0 1 0-1 0h1Zm2.654 1.462a.5.5 0 1 0 1 0h-1Zm1-1.462a.5.5 0 1 0-1 0h1Zm2.653 3.654a.5.5 0 1 0 1 0h-1Zm1-3.654a.5.5 0 1 0-1 0h1ZM9.045 11.97l5.116-5.115-.707-.708-5.115 5.116.707.707Zm13.763-2.546v9.5h1v-9.5h-1ZM20.385 7a2.423 2.423 0 0 1 2.423 2.423h1A3.423 3.423 0 0 0 20.385 6v1Zm-6.577 0h.73V6h-.73v1Zm.73 0h5.847V6h-5.847v1Zm-6.346 4.615v.731h1v-.73h-1Zm0 .731v6.577h1v-6.577h-1ZM14.04 6.5v5.846h1V6.5h-1Zm.5 5.346H8.692v1h5.847v-1Zm-5.847 7.577h14.616v-1H8.692v1Zm-2.192 0h19v-1h-19v1Zm4.154 3.885v-1.462h-1v1.462h1Zm3.654 2.192v-3.654h-1V25.5h1Zm3.654-2.192v-1.462h-1v1.462h1Zm3.653 2.192v-3.654h-1V25.5h1Z" fill="currentColor"/>
  </symbol>
</svg>
